Obsidian-SemiLight/actions/24s/view-bank-account.svg

<svg viewBox="0 0 24 24" xmlns="http://www.w3.org/2000/svg"><path d="m4 4v2 1 13h7v-1h-6v-11h14v5h1v-9h-2v2h-2v-2h-3v2h-2v-2h-3v2h-2v-2zm2 5v1h6v-1zm0 3v1h6v-1zm6 2v6h8v-6zm1 1h6v1h-1v2h1v1h-6v-1h1v-2h-1zm3 1c-.554 0-1 .446-1 1s.446 1 1 1 1-.446 1-1-.446-1-1-1z" fill="#4d4d4d"/><path d="m13 9v1h5v-1z" fill="#da4453"/></svg>

<svg xmlns="http://www.w3.org/2000/svg" viewBox="0 0 24 24">
  <defs id="defs3051">
    <style type="text/css" id="current-color-scheme">
      .ColorScheme-Text {
        color:#4d4d4d;
      }
      .ColorScheme-NegativeText {
        color:#da4453;
      }
      </style>
  </defs>
  <path 
     style="fill:currentColor;fill-opacity:1;stroke:none" 
     d="M 4 4 L 4 6 L 4 7 L 4 20 L 11 20 L 11 19 L 5 19 L 5 8 L 19 8 L 19 13 L 20 13 L 20 4 L 18 4 L 18 6 L 16 6 L 16 4 L 13 4 L 13 6 L 11 6 L 11 4 L 8 4 L 8 6 L 6 6 L 6 4 L 4 4 z M 6 9 L 6 10 L 12 10 L 12 9 L 6 9 z M 6 12 L 6 13 L 12 13 L 12 12 L 6 12 z M 12 14 L 12 20 L 20 20 L 20 14 L 12 14 z M 13 15 L 19 15 L 19 16 L 18 16 L 18 18 L 19 18 L 19 19 L 13 19 L 13 18 L 14 18 L 14 16 L 13 16 L 13 15 z M 16 16 C 15.446 16 15 16.446 15 17 C 15 17.554 15.446 18 16 18 C 16.554 18 17 17.554 17 17 C 17 16.446 16.554 16 16 16 z "
     class="ColorScheme-Text"/>
  <path
     style="fill:currentColor;fill-opacity:1;stroke:none" 
     d="M 13 9 L 13 10 L 18 10 L 18 9 L 13 9 z "
     class="ColorScheme-NegativeText"
     />
</svg>
